app/dist/common/images/federal-signal.svg

<svg height="18" width="18" xmlns="http://www.w3.org/2000/svg"><path d="m0 0h18v18h-18z" fill="#052a39"/><g fill="#e21838"><path d="m10 7v-2.997h-3.157s-2.753-.195-2.843 2.813v7.184h3v-6.157s0-.843.996-.843z"/><path d="m8.001 10h1.35c.705-.005.648-.658.648-.658v-1.342h-1.35c-.708.003-.648.658-.648.658z"/><path d="m15 6v3h-.48s-.52 0-.52.498v2.44s-.184 2.062-2.13 2.062h-3.87v-3h2.327s.707-.022.673-.813v-2.154s.054-1.987 1.72-2.033z"/></g></svg>

<!-- by TradingView --><svg width="18" height="18" xmlns="http://www.w3.org/2000/svg"><path fill="#052A39" d="M0 0h18v18H0z"/><path d="M10 7V4.003H6.843S4.09 3.808 4 6.816V14h3V7.843S7 7 7.996 7H10z" fill="#E21838"/><path d="M8.001 10h1.35c.705-.005.648-.658.648-.658V8h-1.35c-.708.003-.648.658-.648.658V10z" fill="#E21838"/><path d="M15 6v3h-.48S14 9 14 9.498v2.44S13.816 14 11.87 14H8v-3h2.327s.707-.022.673-.813V8.033S11.054 6.046 12.72 6H15z" fill="#E21838"/></svg>
